src/content/sponsors/dlthub.svg

<?xml version="1.0" encoding="UTF-8" standalone="no"?>
<svg
   width="1920"
   height="1080"
   viewBox="0 0 1920 1080"
   fill="none"
   version="1.1"
   id="svg10"
   sodipodi:docname="dlthub.svg"
   inkscape:version="1.3.2 (091e20e, 2023-11-25)"
   xmlns:inkscape="http://www.inkscape.org/namespaces/inkscape"
   xmlns:sodipodi="http://sodipodi.sourceforge.net/DTD/sodipodi-0.dtd"
   xmlns="http://www.w3.org/2000/svg"
   xmlns:svg="http://www.w3.org/2000/svg">
  <sodipodi:namedview
     id="namedview10"
     pagecolor="#ffffff"
     bordercolor="#666666"
     borderopacity="1.0"
     inkscape:showpageshadow="2"
     inkscape:pageopacity="0.0"
     inkscape:pagecheckerboard="0"
     inkscape:deskcolor="#d1d1d1"
     inkscape:zoom="0.21851852"
     inkscape:cx="958.72881"
     inkscape:cy="537.71186"
     inkscape:window-width="1512"
     inkscape:window-height="888"
     inkscape:window-x="0"
     inkscape:window-y="38"
     inkscape:window-maximized="1"
     inkscape:current-layer="svg10" />
  <g
     clip-path="url(#clip0_5_49775)"
     id="g10"
     transform="matrix(1.4474231,0,0,1.4474231,-436.94378,-245.40762)">
    <path
       d="M 856.96,626.286 H 822.228 V 661 h 34.732 z"
       fill="#c6d300"
       id="path1" />
    <path
       d="M 822.228,452.714 V 418 h -34.733 v 34.714 34.715 34.714 34.714 34.715 34.714 h 34.733 v -34.714 -34.715 -34.714 h 34.733 v -34.714 h -34.733 z"
       fill="#59c1d5"
       id="path2" />
    <path
       d="m 719.347,452.714 v 34.715 34.714 34.714 34.715 34.714 V 661 h 34.732 V 626.286 591.572 556.857 522.143 487.429 452.714 418 h -34.732 z"
       fill="#59c1d5"
       id="path3" />
    <path
       d="m 651.198,452.714 v 34.715 h -34.732 -34.733 v 34.714 h 34.733 34.732 v 34.714 34.715 34.714 H 616.466 581.733 V 661 h 34.733 34.732 34.733 V 626.286 591.572 556.857 522.143 487.429 452.714 418 h -34.733 z"
       fill="#59c1d5"
       id="path4" />
    <path
       d="M 581.733,556.857 V 522.143 H 547 v 34.714 34.715 34.714 h 34.733 v -34.714 z"
       fill="#59c1d5"
       id="path5" />
    <path
       d="M 994.574,522.143 H 925.109 V 418 h -34.733 v 243 h 34.733 V 556.857 h 69.465 V 661 h 34.736 V 418 h -34.736 z"
       fill="#c6d300"
       id="path6" />
    <path
       d="m 1097.46,487.429 h -34.74 v 138.857 h 34.74 z"
       fill="#c6d300"
       id="path7" />
    <path
       d="m 1166.92,626.286 h -69.46 V 661 h 104.19 V 487.429 h -34.73 z"
       fill="#c6d300"
       id="path8" />
    <path
       d="m 1269.8,522.143 h 69.47 V 487.429 H 1269.8 V 418 h -34.73 v 243 h 104.2 v -34.714 h -69.47 z"
       fill="#c6d300"
       id="path9" />
    <path
       d="m 1374,522.143 h -34.73 V 626.286 H 1374 Z"
       fill="#c6d300"
       id="path10" />
  </g>
  <defs
     id="defs10">
    <clipPath
       id="clip0_5_49775">
      <rect
         width="827"
         height="243"
         fill="white"
         transform="translate(547 418)"
         id="rect10" />
    </clipPath>
  </defs>
</svg>

<svg width="1920" height="1080" viewBox="0 0 1920 1080" fill="none" xmlns="http://www.w3.org/2000/svg">
<rect width="1920" height="1080" fill="#181937"/>
<g clip-path="url(#clip0_5_49775)">
<path d="M856.96 626.286H822.228V661H856.96V626.286Z" fill="#C6D300"/>
<path d="M822.228 452.714V418H787.495V452.714V487.429V522.143V556.857V591.572V626.286H822.228V591.572V556.857V522.143H856.961V487.429H822.228V452.714Z" fill="#59C1D5"/>
<path d="M719.347 452.714V487.429V522.143V556.857V591.572V626.286V661H754.079V626.286V591.572V556.857V522.143V487.429V452.714V418H719.347V452.714Z" fill="#59C1D5"/>
<path d="M651.198 452.714V487.429H616.466H581.733V522.143H616.466H651.198V556.857V591.572V626.286H616.466H581.733V661H616.466H651.198H685.931V626.286V591.572V556.857V522.143V487.429V452.714V418H651.198V452.714Z" fill="#59C1D5"/>
<path d="M581.733 556.857V522.143H547V556.857V591.572V626.286H581.733V591.572V556.857Z" fill="#59C1D5"/>
<path d="M994.574 522.143H925.109V418H890.376V661H925.109V556.857H994.574V661H1029.31V418H994.574V522.143Z" fill="#C6D300"/>
<path d="M1097.46 487.429H1062.72V626.286H1097.46V487.429Z" fill="#C6D300"/>
<path d="M1166.92 626.286H1097.46V661H1201.65V487.429H1166.92V626.286Z" fill="#C6D300"/>
<path d="M1269.8 522.143H1339.27V487.429H1269.8V418H1235.07V661H1339.27V626.286H1269.8V522.143Z" fill="#C6D300"/>
<path d="M1374 522.143H1339.27V626.286H1374V522.143Z" fill="#C6D300"/>
</g>
<defs>
<clipPath id="clip0_5_49775">
<rect width="827" height="243" fill="white" transform="translate(547 418)"/>
</clipPath>
</defs>
</svg>
